src/images/portfolio-resinate/divider-left.svg

<svg height="133" viewBox="0 0 1440 133" width="1440" xmlns="http://www.w3.org/2000/svg"><g fill="#fff" fill-rule="evenodd"><path d="m655.47383-656h37.317254c37.335878 61.120281 64.074518 158.425271 80.21592 291.914969 24.212103 200.234549 7.154218 422.2652338-22.460917 703.557019-19.743423 187.527858-38.63634 336.370528-56.678752 446.528012h-38.393505z" opacity=".353627" transform="matrix(0 1 1 0 655 -655)"/><path d="m667.121639-687.121639h49.35413c25.503784 45.499356 42.70998 140.214848 51.618587 284.146478 13.36291 215.897444-4.113064 732.526528-17.634896 876.907658-9.014555 96.254087-16.10228 195.902708-21.263175 298.945864h-62.074646z" transform="matrix(0 1 1 0 677.121639 -677.121639)"/></g></svg>

<?xml version="1.0" encoding="UTF-8"?>
<svg width="1440px" height="133px" viewBox="0 0 1440 133" version="1.1" xmlns="http://www.w3.org/2000/svg" xmlns:xlink="http://www.w3.org/1999/xlink">
    <!-- Generator: Sketch 50.2 (55047) - http://www.bohemiancoding.com/sketch -->
    <title>divider-left</title>
    <desc>Created with Sketch.</desc>
    <defs></defs>
    <g id="divider-left" stroke="none" stroke-width="1" fill="none" fill-rule="evenodd">
        <path d="M655.47383,-656 L692.791084,-656 C730.126962,-594.879719 756.865602,-497.574729 773.007004,-364.085031 C797.219107,-163.850482 780.161222,58.1802028 750.546087,339.471988 C730.802664,526.999846 711.909747,675.842516 693.867335,786 L655.47383,786 L655.47383,-656 Z" id="Rectangle-3" fill="#FFFFFF" opacity="0.353627232" transform="translate(720.000000, 65.000000) scale(-1, 1) rotate(90.000000) translate(-720.000000, -65.000000) "></path>
        <path d="M667.121639,-687.121639 L716.475769,-687.121639 C741.979553,-641.622283 759.185749,-546.906791 768.094356,-402.975161 C781.457266,-187.077717 763.981292,329.551367 750.45946,473.932497 C741.444905,570.186584 734.35718,669.835205 729.196285,772.878361 L667.121639,772.878361 L667.121639,-687.121639 Z" id="Rectangle-3" fill="#FFFFFF" transform="translate(720.000000, 42.878361) scale(-1, 1) rotate(90.000000) translate(-720.000000, -42.878361) "></path>
    </g>
</svg>
